X: 3321
T: WRIGHT'S HORNPIPE
R: Hornpipe.
%R: hornpipe, reel
B: James Kerr "Merry Melodies" v.3 p.35 #321
Z: 2016 John Chambers <jc:trillian.mit.edu>
M: C
L: 1/8
K: D
(Ac) |\
dcdA FDBA | GFED CEA,C |\
DDFD ADdD | FADF E2 (Ac) |\
dcdA BGgf | edcB AGFE |\
FdBG FAGE | D2D2 D2 :|
|: (cd) |\
ecA^G Aceg | fdA^G Adfa |\
gbeg fadf | edcB AABc |\
dcdA BGgf | edcB AGFE |\
FdAg fdce | d2d2 d2 :|

%%sep 1 1 500
%%sep 1 1 500

